brandFactory_export/1.Light/Documento_Archivo CSS_1Light.svg

<?xml version="1.0" encoding="UTF-8"?>
<svg width="24px" height="24px" viewBox="0 0 24 24" version="1.1" xmlns="http://www.w3.org/2000/svg" xmlns:xlink="http://www.w3.org/1999/xlink">
    <title>1.Light/Documento_Archivo CSS_1Light</title>
    <g id="Symbols" stroke="none" stroke-width="1" fill="none" fill-rule="evenodd">
        <g id="1.Light/Documento_Archivo-CSS_1Light" fill="#5CB615" fill-rule="nonzero">
            <path d="M16.3058824,-1.86517468e-13 C16.5243697,-1.86517468e-13 16.7361345,0.087394958 16.887395,0.238655462 L23.3747899,6.51764706 C23.4823529,6.62184874 23.5462185,6.75966387 23.5831933,6.90420168 C23.610084,6.96470588 23.6235294,7.02857143 23.6235294,7.09915966 L23.6235294,22.1747899 C23.6235294,22.9579832 22.9478992,23.6201681 22.1478992,23.6201681 L7.22352941,23.6201681 C6.43697479,23.6201681 5.74789916,22.9445378 5.74789916,22.1747899 L5.79159664,18.5310924 L2.72268908,18.5310924 C1.22352941,18.5310924 0.00336134409,17.3109244 0.00336134409,15.8084034 L0.00336134409,10.7932773 C0.00336134409,9.2907563 1.22352941,8.07058824 2.72268908,8.07058824 L5.74789916,8.07058824 L5.74789916,1.44537815 C5.74789916,0.68907563 6.45042017,-1.86517468e-13 7.22352941,-1.86517468e-13 L16.3058824,-1.86517468e-13 Z M15.4789916,0.998319328 L7.22016807,0.998319328 C6.99831933,0.998319328 6.73277311,1.24369748 6.73277311,1.45210084 L6.73277311,8.07731092 L14.7764706,8.07731092 C16.2756303,8.07731092 17.4957983,9.29747899 17.4957983,10.8 L17.4957983,15.8151261 C17.4957983,17.3176471 16.2756303,18.5378151 14.7764706,18.5378151 L6.77647059,18.5378151 L6.73277311,22.1882353 C6.73277311,22.4067227 6.97815126,22.6352941 7.22016807,22.6352941 L22.1478992,22.6352941 L22.1478992,22.6319328 C22.3966387,22.6319328 22.6352941,22.410084 22.6352941,22.1781513 L22.6352941,7.92268908 L19.5529412,7.92268908 C18.3764706,7.92268908 17.3613445,7.54285714 16.6218487,6.82352941 C15.8756303,6.10420168 15.4789916,5.11260504 15.4789916,3.96302521 L15.4789916,0.998319328 Z M14.7798319,9.06218487 L2.71932773,9.06218487 C1.76806723,9.06218487 0.991596638,9.83865546 0.991596638,10.7932773 L0.991596638,15.8084034 C0.991596638,16.7630252 1.76470588,17.5394958 2.71932773,17.5394958 L14.7798319,17.5394958 C15.7310924,17.5394958 16.507563,16.7630252 16.507563,15.8084034 L16.507563,10.7932773 C16.507563,9.83865546 15.7344538,9.06218487 14.7798319,9.06218487 Z M8.76638655,10.9747899 C9.18991597,10.9747899 9.65378151,11.0386555 9.99327731,11.1563025 L9.83865546,11.902521 C9.4789916,11.805042 9.09243697,11.7478992 8.78319328,11.7478992 C8.24201681,11.7478992 8.07058823,11.9394958 8.07058823,12.2184874 C8.07058823,13.0789916 10.312605,12.487395 10.312605,14.205042 C10.312605,14.5983193 10.1781513,14.9109244 9.94621849,15.1294118 C9.63697479,15.4184874 9.22016807,15.5462185 8.59159664,15.5462185 C8.03361345,15.5394958 7.57983193,15.4689076 7.13613445,15.3142857 L7.2907563,14.5512605 C7.67731092,14.6857143 8.18487395,14.7697479 8.50420168,14.7697479 C9.09579832,14.7697479 9.37142857,14.6151261 9.37142857,14.2117647 C9.37142857,13.3882353 7.12941176,13.9865546 7.12941176,12.2588235 C7.12941176,11.3647059 7.82857143,10.9747899 8.76638655,10.9747899 Z M12.5579832,10.9747899 C12.9815126,10.9747899 13.4453782,11.0386555 13.7848739,11.1563025 L13.6302521,11.902521 C13.2705882,11.805042 12.8840336,11.7478992 12.5747899,11.7478992 C12.0336134,11.7478992 11.8621849,11.9394958 11.8621849,12.2184874 C11.8621849,13.0789916 14.1042017,12.487395 14.1042017,14.205042 C14.1042017,14.5983193 13.9697479,14.9109244 13.7378151,15.1294118 C13.4285714,15.4184874 13.0117647,15.5462185 12.3831933,15.5462185 C11.8285714,15.5394958 11.3714286,15.4689076 10.9277311,15.3142857 L11.0823529,14.5512605 C11.4689076,14.6857143 11.9764706,14.7697479 12.2957983,14.7697479 C12.887395,14.7697479 13.1630252,14.6151261 13.1630252,14.2117647 C13.1630252,13.3882353 10.9210084,13.9865546 10.9210084,12.2588235 C10.9210084,11.3647059 11.6201681,10.9747899 12.5579832,10.9747899 Z M5.4487395,10.9747899 C5.82857143,10.9747899 6.31596639,11.0588235 6.59831933,11.1731092 L6.47058823,11.9058824 C6.13109244,11.8084034 5.80168067,11.7512605 5.52605042,11.7512605 C4.5815126,11.7512605 4.36302521,12.3731092 4.36302521,13.2470588 C4.36302521,13.7680672 4.4605042,14.205042 4.6789916,14.4470588 C4.87058823,14.6655462 5.14957983,14.7630252 5.64369748,14.7630252 C5.85546218,14.7630252 6.19495798,14.7226891 6.45378151,14.6722689 L6.55798319,15.405042 C6.29579832,15.4823529 5.81176471,15.5394958 5.45210084,15.5394958 C4.67226891,15.5394958 4.18487395,15.3546218 3.85546218,15.0084034 C3.48235294,14.6084034 3.3210084,14.0369748 3.3210084,13.2739496 C3.3210084,11.8991597 3.94285714,10.9747899 5.4487395,10.9747899 Z M16.4705882,1.21344538 L16.4705882,3.95966387 C16.4705882,4.83361345 16.7596639,5.57647059 17.3109244,6.10756303 C17.8621849,6.64201681 18.6386555,6.92773109 19.5529412,6.92773109 L22.3731092,6.92773109 L16.4705882,1.21344538 Z" id="Documento_Archivo-CSS_1Light"></path>
        </g>
    </g>
</svg>

<svg width="24" height="24" viewBox="0 0 24 24" xmlns="http://www.w3.org/2000/svg"><path d="M16.306 0c.218 0 .43.087.581.239l6.488 6.279a.806.806 0 01.208.386.47.47 0 01.04.195v15.076c0 .783-.675 1.445-1.475 1.445H7.224c-.787 0-1.476-.675-1.476-1.445l.044-3.644h-3.07c-1.498 0-2.719-1.22-2.719-2.723v-5.015a2.723 2.723 0 012.72-2.722h3.025V1.445C5.748.69 6.45 0 7.224 0h9.082zm-.827.998H7.22c-.222 0-.487.246-.487.454v6.625h8.043c1.5 0 2.72 1.22 2.72 2.723v5.015a2.723 2.723 0 01-2.72 2.723h-8l-.043 3.65c0 .219.245.447.487.447h14.928v-.003c.249 0 .487-.222.487-.454V7.923h-3.082c-1.177 0-2.192-.38-2.931-1.1-.746-.719-1.143-1.71-1.143-2.86V.998zm-.7 8.064H2.72c-.95 0-1.727.777-1.727 1.731v5.015a1.73 1.73 0 001.727 1.731h12.06c.952 0 1.729-.776 1.729-1.73v-5.016a1.73 1.73 0 00-1.728-1.73zm-6.013 1.913c.424 0 .888.064 1.227.181l-.154.747a4.263 4.263 0 00-1.056-.155c-.541 0-.712.191-.712.47 0 .861 2.242.27 2.242 1.987 0 .393-.135.706-.367.924-.309.29-.726.417-1.354.417-.558-.007-1.012-.077-1.456-.232l.155-.763c.386.135.894.219 1.213.219.592 0 .867-.155.867-.558 0-.824-2.242-.225-2.242-1.953 0-.894.7-1.284 1.637-1.284zm3.792 0c.424 0 .887.064 1.227.181l-.155.747a4.263 4.263 0 00-1.055-.155c-.541 0-.713.191-.713.47 0 .861 2.242.27 2.242 1.987 0 .393-.134.706-.366.924-.31.29-.726.417-1.355.417-.554-.007-1.012-.077-1.455-.232l.154-.763c.387.135.894.219 1.214.219.591 0 .867-.155.867-.558 0-.824-2.242-.225-2.242-1.953 0-.894.7-1.284 1.637-1.284zm-7.11 0c.38 0 .868.084 1.15.198l-.127.733a3.558 3.558 0 00-.945-.155c-.944 0-1.163.622-1.163 1.496 0 .521.098.958.316 1.2.192.219.47.316.965.316.211 0 .551-.04.81-.09l.104.732c-.262.077-.746.134-1.106.134-.78 0-1.267-.184-1.597-.53-.373-.4-.534-.972-.534-1.735 0-1.375.622-2.3 2.128-2.3zm11.023-9.762V3.96c0 .874.289 1.616.84 2.148.551.534 1.328.82 2.242.82h2.82l-5.902-5.715z" fill="#5CB615" fill-rule="nonzero"/></svg>
